X:256
T:My Soul, Now Praise Thy Maker
%%stretchlast false
M:3/4
L:1/4
K:F clef=C1
"^vi"[DAd] [DAdf]2 | "^iii"[A,Ace] "^IV"[B,FBd]2 | "^iii¹"[CEAc] "^vi"[DFAf]2 | "^ii¹"[B,Ddg] "^V/vi"[A,E_da]2 | "^vi"[DFda] [DFda]2 | "^iii"[A,Eca] "^vi"[DFda]2 | "^ii"[G,Bdg] "^I¹"[A,Acf] "^ii7¹"[B,Gdf] | "^V"[CGce] "^I"[F,Acf]2 | "^vi"[DAd] [DAdf]2 | "^iii"[A,Ace] "^IV"[B,FBd]2 | "^iii¹"[CEAc] "^vi"[DFAf]2 | "^ii¹"[B,Ddg] "^V/vi"[A,E_da]2 | "^vi"[DFda] [DFda]2 | "^iii"[A,Eca] "^vi"[DFda]2 | "^ii"[G,Bdg] "^I¹"[A,Acf] "^ii7¹"[B,Gdf] | "^V"[CGce] "^I"[F,Acf]2 | [FAcf] "^IV"[B,Bdf]2 | "^I"[F,cfa] "^V"[Cceg]2 | "^iii"[A,cea] "^vi"[DAdf] [A,Ade] | "^III"[A,A_de] "^VI"[D,_Gd]2 | "^vi"[DFd] "^II¹"[=B,Gdg]2 | "^ii¹"[B,Gdg] "^V"[CGce] "^I"[F,Acf] | "^V/V"[G,G=Bd] "^V"[CEc]2 | [CEc] "^I¹"[A,Fcf]2 | "^vi"[DFAf] "^ii7¹"[B,Fdg]2 | "^V"[CEcg] "^I"[F,Fca]3 | "^IV"[B,Fdf]2 | "^I¹"[A,Fcf] "^v7²"[G,CBb]2 | "^ii"[Gdb] [DGda]2 | "^VI"[D,_Gda] "^V/V"[G,G=Bg]2 | "^V"[CEcg] "^I"[F,Fca]2 | [Fca] "^IV"[B,Fdb]2 | "^IV¹"[DBfb] "^iii°¹"[CA_ec']3/2 "^v"[CG_ec']/ | [CA_ec'] "^IV"[B,Bdf]2 | "^I"[F,cfa] "^V"[Cceg]2 | "^iii"[A,Ec] "^V¹"[E,Gce] [G,Gcd] | "^V/V"[G,G=Bd] "^V"[CEc]2 | "^iii"[A,Ec] "^vi"[DFAf]2 | "^♭v°¹"[D=Bf] "^V"[CGce]2 | "^V/V¹"[=B,Gd] "^V"[CEcg]2 | "^V/V"[G,D=Bg] "^V"[CEcg]2 | "^I"[F,Gca] "^IV"[B,Fdb] "^viiø7¹"[G,Edb] | "^I¹"[A,Fca] "^vi"[DFAf] "^I¹"[A,Fca] | "^V"[CEcg] "^I"[F,Acf]2 |]
